static/assets/images/logos/monochrome/copley.svg

<svg focusable="false" role="presentation" xmlns="http://www.w3.org/2000/svg" xml:space="preserve" style="fill-rule:evenodd;clip-rule:evenodd;stroke-linejoin:round;stroke-miterlimit:2" viewBox="0 0 774 392">
  <path d="M764.87,151.98c-29.16-58.78-94.5-93.16-153.25-115.53C551.76,14.44,485.13,3.77,421.78.9c-9.21-.46-18.42-.72-27.64-.78-3.24-.02-8.12-.25-11.21,0h0c-6.67.27-13.39.16-20.15.41-19.89.61-39.76,2.01-59.55,4.18-73.78,8.23-149.97,27.72-213.83,66.57C48.12,96.39,1.85,137.03,0,188.99c-.1,2.72,12.28,23.33,14.42,27.06l24.67,43.29,21.36,37.48c3.5,6.14,8.11,14.79,11.93,20.56,14.21,4.15,34.73,8.28,49.49,11.74l96.38,22.58,110.48,25.89,36.98,8.69c6.55,1.54,13.13,3.13,19.7,4.55,1.96.42,3.09.1,5.05-.3l217.45-53.81,69.24-17.12c11.4-2.82,22.9-5.59,34.28-8.52,1.43-.37,3.05-.83,3.79-2.11,4.01-6.92,7.51-14.66,11-21.88l15.78-31.96c7.02-14.04,13.97-28.13,20.85-42.25,2.43-4.96,8.88-16.85,10.29-21.45,2.73-8.89-4.42-31.69-8.27-39.45ZM745.46,189.14c-3.75,9.22-7.98,18.68-11.9,27.76l-33.52,77.59c-4.03,1.19-8.75,1.96-12.87,3-11.02,2.79-21.84,4.9-33,7.05l-59.49,11.43-193.33,37.13c-2.2.43-12.58,2.7-13.94,2.53-10.08-1.31-21.01-3.44-31.04-5.22l-62.29-11.05-207.31-36.72c-1.93-4.33-4.86-9.69-7.08-14.05l-13.94-27.4c-12.64-24.9-25.3-50.33-38.23-75.03,1.37-27.78,13.43-51.23,32.87-70.66C134.21,41.71,271.86,16.48,371.29,14.84c12.94-.39,25.9-.35,38.84.13,71.34,1.96,149.24,15.12,215.04,43.23,45.49,20.02,94.97,48.98,115.24,96.87,3.08,8.63,8.62,25.29,5.05,34.07Z"/>
  <path d="M292.07,112.37c-1.73-20.46-19.69-35.66-40.15-33.98-20.54,1.68-35.81,19.72-34.07,40.26,1.74,20.54,19.82,35.76,40.35,33.97,20.45-1.79,35.6-19.79,33.87-40.25ZM259.8,148.13c-13.6,1.94-20.03-12-22.31-23.04-2.77-13.43-4.32-38.71,13.65-42.22,11-.98,17.97,8.82,20.49,18.38,3.85,14.56,7.07,41.34-11.83,46.88Z"/>
  <path d="M369.15,78.42c-5.57-5.5-17.93-6.98-25.45-5.97h.01c-7.2.43-14.4.76-21.6,1-3.05.11-8.65-.55-10.65,1.63l-.12.84c2.02,2.42,6.7.77,8.57,3.85,1.9,3.14,2.84,51.32,2.3,57.51-.14,1.56-.24,2.54-1.51,3.58-1.98,1.62-5.09,2.17-6.67,4.18l.02.82c1.89,1.21,13.07-.34,16.02-.41,4.92-.11,9.8.02,14.72.15,1.56-.11,2.28-.06,3.62-.88l.31-.55c-2.36-3.51-9.63.1-10.93-7.57-1.4-8.23-.41-16.73-1.23-24.97,10.9-.13,24.31.57,32.77-7.66,6.8-6.62,6.52-18.94-.18-25.55ZM348.64,105.98c-4.12,1.8-7.79,1.64-12.19,1.68-.03-9.73-.57-20.15-.84-29.95,2.44-.54,5.15-.75,7.65-1.01,15.08-2.12,19,20.74,5.38,29.28Z"/>
  <path d="M482.98,76.05c3.45,0,12.5,1.6,16.48,2,13.21,1.34,26.8,3.4,40.02,4.41.35,3.11,2.57,17.63-.15,18.88-3.13-1.25-4.86-9.43-10.65-13.25-5.66-3.73-15.07-5.22-21.52-4.14-1.77,6.34-3.2,20.36-3.85,26.92,8.08.86,11.77,1.95,16.45-5.66.74-1.2,2.54-3.79,4.01-3.51,1.15,2.52-2.62,20.38-2.24,24.62.11,1.27-.53,3.18-1.65,4.06-4.83-2.36,3.04-11.45-16.98-15.34-.39,2.87-.76,5.73-1.11,8.6-.48,3.09-2.38,17.55-1.2,19.35,6.04,9.26,30.21,5.18,35.58-3.68.66-1.1,1.96-2.93,3.01-3.39,1.13.17.76-.04,1.55.68.39,3.08-4.18,14.76-5.46,18.31-7.2-1.25-15.28-1.57-22.6-2.63-12.3-1.78-24.55-3.71-37-4.03-1.1-.03-1.48-.61-2.03-1.36-.01-.17-.15-.99-.1-1.09.59-1.11,7.69-.63,9.82-3.85,2.5-3.77,7.97-52.35,7.03-57.73-.71-4.1-4.42-3.43-7.17-5.33-.77-1.38-.54-.99-.26-2.85h.02Z"/>
  <path d="M182.35,88.79c.89,0,.95.03,1.8.32,1.77,2.04,7.86,22.35,5.83,24.2-1.37-.18-2.57-1.44-3.37-2.45-6.96-9.27-19.56-19.74-31.02-10.49-13.36,10.78-7.06,37.05,1.66,48.83,10.27,13.87,27.91,13.69,35.54-2.31.83-1.74,2.85-6.14,4.3-7.27,1.36-.23.95-.17,2.4.64.54,9.03-11.56,22.28-20.16,24.6-7.47,2.01-14.45,3.2-22.03,1.1-8.8-2.49-16.23-8.41-20.62-16.43-9.52-17.03-6.22-42.2,11.87-52.53,9.47-5.41,20.61-4.94,30.87-2,1.01-2.41,1.69-3.9,2.96-6.2h-.03Z"/>
  <path d="M568.13,85.58c7.31.24,19.27,5.53,27.5,5.67,1.24.02,4.95.69,5.83,1.35.29,1.2.34.75-.07,1.78-3.06,2.22-10.68-2.22-7.09,8.71,2.52,7.67,5.87,14.95,9.05,22.35,4.93-4.47,16.49-14.32,19.01-20.47,1.15-2.8-4.12-5.27-5.4-7.53.08-1.09-.11-.69.77-1.46,3.54-.09,10.38,2.53,14.18,3.22,2.78.5,8.14.58,10.3,1.92l.1.92c-2.16,2.79-6.5.96-10.49,3.53-6.01,3.87-10.99,9.03-16.05,14.01-1.36,1.3-9.16,8.61-9.95,10.72-2.46,6.54-6.09,22.99-5.38,30.14.1,1.01,6.79,3.76,7.56,6.01l-.43.54c-3.72.97-14.27-3.33-19.13-3.83-3.34-.35-9.15-1.45-12.66-1.96-.72-.11-.97-.79-1.22-1.36.69-2.88,5.8-1.08,8.41-3.42,2.82-2.52,6.28-20,5.81-22.91-2.52-13.45-8.17-27.75-14.18-40.06-1.63-3.34-6.88-3-6.47-7.89v.02Z"/>
  <path d="M395.29,71.91c6.23-.26,13.33.69,19.64.88,3.15.09,15.39-.34,16.88.91.17,1.33.27.79-.46,2.04-1.33.9-3.23.89-4.79,1.14-1.86.29-3.68.83-4.75,2.53-2.43,3.85-3.9,53.1-2.59,59.11.2.92.49,1.53,1.37,2.01,3.35,1.84,11.7.97,15.43.07,8.04-1.93,11.59-7.13,15.65-13.7,1.08-1.74,2.6-4.45,4.66-4.94l.51.56c.49,1.84.31,2.55.05,4.46-1.25,6.55-2.57,13.08-3.97,19.59-13.13-1.32-26.69-1.34-39.87-2.04-6.77-.36-13.45.07-20.2-.27l-.45-.72c-.02-.35-.04-.74-.06-1.19,1.68-1.38,8.32-2.22,9.3-4.51,3.22-7.54,2.5-20.15,2.92-28.31.49-9.42,1.13-17.5.35-26.5-.7-8.1-6.4-6.28-9.46-8.39-.66-1.39-.47-.98-.16-2.73Z"/>
  <path d="M384.47,191.58l15.08,15.03,3.3,3.31-3.01,2.97c-4.32,3.77-11.05,10.94-15.36,15.23-4.38-4.81-10.51-10.64-15.24-15.25l-2.98-3.09,2.99-2.94c5.14-5.02,10.21-10.1,15.22-15.25h0Z"/>
  <path d="M237.58,209.65c13.77.13,29.07-.54,42.93-.83l88.73-1.99-2.99,2.94,2.98,3.09c-17.72.1-36.19-.44-53.97-.72l-99.03-1.46c-1.42.3-6.16-.23-7.64-.73,2.57-.73,25.66-.53,28.98-.31h0Z"/>
  <path d="M216.24,210.69c-1.42.3-6.16-.23-7.64-.73,2.57-.73,25.66-.53,28.98-.31-4.08.55-19.51-.2-21.34,1.04Z"/>
  <path d="M399.55,206.61c16.69.8,35.83.52,52.73.81l101.91,1.46c-1.12.16-3.08.38-4.1.66-10.35,0-21.54.5-31.99.71l-84.77,1.9c-10.71.23-22.98.85-33.49.75l3.01-2.97-3.3-3.31h0Z"/>
  <path d="M554.19,208.88c1.53-.04,2.98-.08,4.51-.05l.31.44.1-.43c.53.02.29-.07.74.23-3.35.76-6.35.67-9.76.47,1.02-.28,2.98-.5,4.1-.66Z"/>
  <path d="M186.46,263.47h12.81v2.52h-10.1v10.03h9.06v2.52h-9.06v12.04h-2.71v-27.1h0Z"/>
  <path d="M207.29,263.47h2.71v27.1h-2.71v-27.1Z"/>
  <path d="M219.4,263.47h2.63l10.88,20.87v-20.87h2.63v27.1h-2.36l-11.15-21.41v21.41h-2.63v-27.1Z"/>
  <path d="M251.19,263.31h2.83l8.05,27.25h-2.83l-2.05-7.05h-9.29l-2.05,7.05h-2.67l8.01-27.25ZM256.49,281.04l-3.91-13.7-3.99,13.7h7.9Z"/>
  <path d="M269.66,263.47h2.63l10.88,20.87v-20.87h2.63v27.1h-2.36l-11.15-21.41v21.41h-2.63v-27.1Z"/>
  <path d="M294.12,277.25v-.43c0-8.75,4.34-13.63,9.79-13.63,2.44,0,4.22.93,5.65,2.25l-1.51,2.13c-1.16-1.04-2.55-1.82-4.22-1.82-3.87,0-6.97,4.26-6.97,11.11v.27c0,7.04,3.1,11.15,6.93,11.15,1.66,0,3.14-.81,4.41-2.01l1.47,2.09c-1.59,1.47-3.6,2.48-6.04,2.48-5.46,0-9.52-4.76-9.52-13.59h.01Z"/>
  <path d="M317.58,263.47h2.71v27.1h-2.71v-27.1Z"/>
  <path d="M336.17,263.31h2.83l8.05,27.25h-2.83l-2.05-7.05h-9.29l-2.05,7.05h-2.67l8.01-27.25ZM341.47,281.04l-3.91-13.7-3.99,13.7h7.9Z"/>
  <path d="M354.63,263.47h2.71v24.58h9.48v2.52h-12.19v-27.1Z"/>
  <path d="M384.87,277.28v-.5c0-8.36,4.34-13.59,10.26-13.59,2.44,0,4.3.62,6.16,2.13l-1.55,2.28c-1.12-1.08-2.63-1.86-4.57-1.86-4.22,0-7.55,4.14-7.55,11.07v.35c0,7.24,3.21,11.19,7.67,11.19,1.43,0,2.71-.43,3.64-1.04v-8.63h-5.19v-2.48h7.78v12.54c-1.63,1.16-3.87,2.09-6.43,2.09-6.12,0-10.22-4.96-10.22-13.55Z"/>
  <path d="M410.31,263.47h6.54c2.75,0,4.99.85,6.46,2.32,1.35,1.35,2.13,3.37,2.13,5.81v.12c0,4.1-2.21,6.62-5.34,7.67l6.04,11.19h-3.1l-5.65-10.57c-.35.04-.7.04-1.04.04h-3.33v10.53h-2.71v-27.1h0ZM416.03,277.56c4.8,0,6.74-2.4,6.74-5.81v-.04c0-3.79-2.36-5.73-6.12-5.73h-3.64v11.58h3.02Z"/>
  <path d="M432.87,277.32v-.58c0-8.44,3.87-13.67,9.21-13.67s9.17,5.15,9.17,13.63v.58c0,8.44-3.91,13.67-9.25,13.67s-9.14-5.15-9.14-13.63h.01ZM448.48,277.25v-.46c0-7.01-2.79-11.15-6.43-11.15s-6.39,4.14-6.39,11.15v.46c0,7.01,2.75,11.15,6.39,11.15s6.43-4.14,6.43-11.15Z"/>
  <path d="M459.32,281.85v-18.39h2.71v18.43c0,4.26,2.01,6.54,5.26,6.54s5.19-2.21,5.19-6.46v-18.5h2.75v18.35c0,5.88-3.17,9.14-7.97,9.14s-7.94-3.25-7.94-9.1h0Z"/>
  <path d="M484.17,263.47h5.92c5.34,0,8.79,3.21,8.79,8.63v.08c0,5.57-3.68,8.75-8.94,8.83h-3.06v9.56h-2.71v-27.1ZM489.94,278.52c3.91,0,6.19-2.44,6.19-6.31v-.04c0-4.03-2.32-6.19-6.16-6.19h-3.1v12.54h3.07Z"/>
  <path d="M500.59,293.93c1.9-.66,2.55-1.78,2.4-3.37h-1.39v-3.87h3.33v3.29c0,2.98-1.2,4.41-3.87,5.23l-.46-1.28h-.01Z"/>
  <path d="M525.33,263.47h2.71v27.1h-2.71v-27.1Z"/>
  <path d="M537.44,263.47h2.63l10.88,20.87v-20.87h2.63v27.1h-2.36l-11.15-21.41v21.41h-2.63v-27.1Z"/>
  <path d="M561.91,277.25v-.43c0-8.75,4.34-13.63,9.79-13.63,2.44,0,4.22.93,5.65,2.25l-1.51,2.13c-1.16-1.04-2.55-1.82-4.22-1.82-3.87,0-6.97,4.26-6.97,11.11v.27c0,7.04,3.1,11.15,6.93,11.15,1.66,0,3.14-.81,4.41-2.01l1.47,2.09c-1.59,1.47-3.6,2.48-6.04,2.48-5.46,0-9.52-4.76-9.52-13.59h0Z"/>
  <path d="M584.63,286.69h3.33v3.87h-3.33v-3.87Z"/>
</svg>

<svg width="774" height="392" viewBox="0 0 774 392" fill="none" xmlns="http://www.w3.org/2000/svg">
<rect width="774" height="392" fill="white"/>
<mask id="mask0_1464_2399" style="mask-type:luminance" maskUnits="userSpaceOnUse" x="0" y="0" width="774" height="392">
<path d="M773.75 0H0V391.02H773.75V0Z" fill="white"/>
</mask>
<g mask="url(#mask0_1464_2399)">
<path d="M382.93 0.120085C386.02 -0.129915 390.9 0.100085 394.14 0.120085C403.36 0.180085 412.57 0.440085 421.78 0.900085C485.13 3.77008 551.76 14.4401 611.62 36.4501C670.37 58.8201 735.71 93.2001 764.87 151.98C768.72 159.74 775.87 182.54 773.14 191.43C771.73 196.03 765.28 207.92 762.85 212.88C755.97 227 749.02 241.09 742 255.13L726.22 287.09C722.73 294.31 719.23 302.05 715.22 308.97C714.48 310.25 712.86 310.71 711.43 311.08C700.05 314.01 688.55 316.78 677.15 319.6L607.91 336.72L390.46 390.53C388.5 390.93 387.37 391.25 385.41 390.83C378.84 389.41 372.26 387.82 365.71 386.28L328.73 377.59L218.25 351.7L121.87 329.12C107.11 325.66 86.59 321.53 72.38 317.38C68.56 311.61 63.95 302.96 60.45 296.82L39.09 259.34L14.42 216.05C12.28 212.32 -0.100008 191.71 -7.9209e-06 188.99C1.84999 137.03 48.12 96.3901 89.39 71.2801C153.25 32.4301 229.44 12.9401 303.22 4.71008C323.01 2.54008 342.88 1.14009 362.77 0.530085C369.53 0.280085 376.25 0.390085 382.92 0.130085L382.93 0.120085Z" fill="black"/>
<path d="M385.88 3.62007C475.65 2.99007 573.61 19.3001 654.39 59.7401C703.1 85.1701 762.74 127.43 764.86 188.07C764.92 189.85 750.11 219.02 748.05 223.18C734.6 250.63 721.01 278.02 707.28 305.33L387.73 383.98C385.59 384.18 367.2 379.48 363.43 378.6L298.67 363.49L153.47 329.63L106.01 318.58C97.43 316.58 87.85 314.58 79.43 312.27L35.05 234.85L19.01 206.88C16.88 203.16 8.87998 190.29 8.92998 187.18C9.49998 152 35.05 118.83 61.62 97.5001C151.11 25.6401 274.36 5.13007 385.88 3.62007Z" fill="black"/>
<path d="M371.29 14.84C384.23 14.45 397.19 14.49 410.13 14.97C481.47 16.93 559.37 30.09 625.17 58.2001C670.66 78.2201 720.14 107.18 740.41 155.07C743.49 163.7 749.03 180.36 745.46 189.14C741.71 198.36 737.48 207.82 733.56 216.9L700.04 294.49C696.01 295.68 691.29 296.45 687.17 297.49C676.15 300.28 665.33 302.39 654.17 304.54L594.68 315.97L401.35 353.1C399.15 353.53 388.77 355.8 387.41 355.63C377.33 354.32 366.4 352.19 356.37 350.41L294.08 339.36L86.77 302.64C84.84 298.31 81.91 292.95 79.69 288.59L65.75 261.19C53.11 236.29 40.45 210.86 27.52 186.16C28.89 158.38 40.95 134.93 60.39 115.5C134.21 41.71 271.86 16.48 371.29 14.84Z" fill="white"/>
<path d="M251.92 78.3901C272.38 76.7101 290.34 91.9101 292.07 112.37C293.8 132.83 278.65 150.83 258.2 152.62C237.67 154.41 219.59 139.19 217.85 118.65C216.11 98.1101 231.38 80.0701 251.92 78.3901Z" fill="black"/>
<path d="M251.14 82.8701C262.14 81.8901 269.11 91.6901 271.63 101.25C275.48 115.81 278.7 142.59 259.8 148.13C246.2 150.07 239.77 136.13 237.49 125.09C234.72 111.66 233.17 86.3801 251.14 82.8701Z" fill="white"/>
<path d="M343.7 72.4499C351.22 71.4399 363.58 72.9199 369.15 78.4199C375.85 85.0299 376.13 97.3499 369.33 103.97C360.87 112.2 347.46 111.5 336.56 111.63C337.38 119.87 336.39 128.37 337.79 136.6C339.09 144.27 346.36 140.66 348.72 144.17L348.41 144.72C347.07 145.54 346.35 145.49 344.79 145.6C339.87 145.47 334.99 145.34 330.07 145.45C327.12 145.52 315.94 147.07 314.05 145.86L314.03 145.04C315.61 143.03 318.72 142.48 320.7 140.86C321.97 139.82 322.07 138.84 322.21 137.28C322.75 131.09 321.81 82.9099 319.91 79.7699C318.04 76.6899 313.36 78.3399 311.34 75.9199L311.46 75.0799C313.46 72.8999 319.06 73.5599 322.11 73.4499C329.31 73.2099 336.51 72.8799 343.71 72.4499H343.7Z" fill="black"/>
<path d="M343.26 76.7001C358.34 74.5801 362.26 97.4401 348.64 105.98C344.52 107.78 340.85 107.62 336.45 107.66C336.42 97.9301 335.88 87.5101 335.61 77.7101C338.05 77.1701 340.76 76.9601 343.26 76.7001Z" fill="white"/>
<path d="M482.98 76.05C486.43 76.05 495.48 77.65 499.46 78.05C512.67 79.39 526.26 81.45 539.48 82.46C539.83 85.57 542.05 100.09 539.33 101.34C536.2 100.09 534.47 91.91 528.68 88.09C523.02 84.36 513.61 82.87 507.16 83.95C505.39 90.29 503.96 104.31 503.31 110.87C511.39 111.73 515.08 112.82 519.76 105.21C520.5 104.01 522.3 101.42 523.77 101.7C524.92 104.22 521.15 122.08 521.53 126.32C521.64 127.59 521 129.5 519.88 130.38C515.05 128.02 522.92 118.93 502.9 115.04C502.51 117.91 502.14 120.77 501.79 123.64C501.31 126.73 499.41 141.19 500.59 142.99C506.63 152.25 530.8 148.17 536.17 139.31C536.83 138.21 538.13 136.38 539.18 135.92C540.31 136.09 539.94 135.88 540.73 136.6C541.12 139.68 536.55 151.36 535.27 154.91C528.07 153.66 519.99 153.34 512.67 152.28C500.37 150.5 488.12 148.57 475.67 148.25C474.57 148.22 474.19 147.64 473.64 146.89C473.63 146.72 473.49 145.9 473.54 145.8C474.13 144.69 481.23 145.17 483.36 141.95C485.86 138.18 491.33 89.6 490.39 84.22C489.68 80.12 485.97 80.79 483.22 78.89C482.45 77.51 482.68 77.9 482.96 76.04H482.98V76.05Z" fill="black"/>
<path d="M182.35 88.79C183.24 88.79 183.3 88.82 184.15 89.11C185.92 91.15 192.01 111.46 189.98 113.31C188.61 113.13 187.41 111.87 186.61 110.86C179.65 101.59 167.05 91.12 155.59 100.37C142.23 111.15 148.53 137.42 157.25 149.2C167.52 163.07 185.16 162.89 192.79 146.89C193.62 145.15 195.64 140.75 197.09 139.62C198.45 139.39 198.04 139.45 199.49 140.26C200.03 149.29 187.93 162.54 179.33 164.86C171.86 166.87 164.88 168.06 157.3 165.96C148.5 163.47 141.07 157.55 136.68 149.53C127.16 132.5 130.46 107.33 148.55 97C158.02 91.59 169.16 92.06 179.42 95C180.43 92.59 181.11 91.1 182.38 88.8H182.35V88.79Z" fill="black"/>
<path d="M568.13 85.5801C575.44 85.8201 587.4 91.1101 595.63 91.2501C596.87 91.2701 600.58 91.9401 601.46 92.6001C601.75 93.8001 601.8 93.3501 601.39 94.3801C598.33 96.6001 590.71 92.1601 594.3 103.09C596.82 110.76 600.17 118.04 603.35 125.44C608.28 120.97 619.84 111.12 622.36 104.97C623.51 102.17 618.24 99.7001 616.96 97.4401C617.04 96.3501 616.85 96.7501 617.73 95.9801C621.27 95.8901 628.11 98.5101 631.91 99.2001C634.69 99.7001 640.05 99.7801 642.21 101.12L642.31 102.04C640.15 104.83 635.81 103 631.82 105.57C625.81 109.44 620.83 114.6 615.77 119.58C614.41 120.88 606.61 128.19 605.82 130.3C603.36 136.84 599.73 153.29 600.44 160.44C600.54 161.45 607.23 164.2 608 166.45L607.57 166.99C603.85 167.96 593.3 163.66 588.44 163.16C585.1 162.81 579.29 161.71 575.78 161.2C575.06 161.09 574.81 160.41 574.56 159.84C575.25 156.96 580.36 158.76 582.97 156.42C585.79 153.9 589.25 136.42 588.78 133.51C586.26 120.06 580.61 105.76 574.6 93.4501C572.97 90.1101 567.72 90.4501 568.13 85.5601V85.5801Z" fill="black"/>
<path d="M395.29 71.91C401.52 71.65 408.62 72.6 414.93 72.79C418.08 72.88 430.32 72.45 431.81 73.7C431.98 75.03 432.08 74.49 431.35 75.74C430.02 76.64 428.12 76.63 426.56 76.88C424.7 77.17 422.88 77.71 421.81 79.41C419.38 83.26 417.91 132.51 419.22 138.52C419.42 139.44 419.71 140.05 420.59 140.53C423.94 142.37 432.29 141.5 436.02 140.6C444.06 138.67 447.61 133.47 451.67 126.9C452.75 125.16 454.27 122.45 456.33 121.96L456.84 122.52C457.33 124.36 457.15 125.07 456.89 126.98C455.64 133.53 454.32 140.06 452.92 146.57C439.79 145.25 426.23 145.23 413.05 144.53C406.28 144.17 399.6 144.6 392.85 144.26L392.4 143.54C392.38 143.19 392.36 142.8 392.34 142.35C394.02 140.97 400.66 140.13 401.64 137.84C404.86 130.3 404.14 117.69 404.56 109.53C405.05 100.11 405.69 92.03 404.91 83.03C404.21 74.93 398.51 76.75 395.45 74.64C394.79 73.25 394.98 73.66 395.29 71.91Z" fill="black"/>
<path d="M384.47 191.58L399.55 206.61L402.85 209.92L399.84 212.89C395.52 216.66 388.79 223.83 384.48 228.12C380.1 223.31 373.97 217.48 369.24 212.87L366.26 209.78L369.25 206.84C374.39 201.82 379.46 196.74 384.47 191.59V191.58Z" fill="black"/>
<path d="M237.58 209.65C251.35 209.78 266.65 209.11 280.51 208.82L369.24 206.83L366.25 209.77L369.23 212.86C351.51 212.96 333.04 212.42 315.26 212.14L216.23 210.68C214.81 210.98 210.07 210.45 208.59 209.95C211.16 209.22 234.25 209.42 237.57 209.64L237.58 209.65Z" fill="black"/>
<path d="M216.24 210.69C214.82 210.99 210.08 210.46 208.6 209.96C211.17 209.23 234.26 209.43 237.58 209.65C233.5 210.2 218.07 209.45 216.24 210.69Z" fill="black"/>
<path d="M399.55 206.61C416.24 207.41 435.38 207.13 452.28 207.42L554.19 208.88C553.07 209.04 551.11 209.26 550.09 209.54C539.74 209.54 528.55 210.04 518.1 210.25L433.33 212.15C422.62 212.38 410.35 213 399.84 212.9L402.85 209.93L399.55 206.62V206.61Z" fill="black"/>
<path d="M440.53 265.62C450.14 265.27 450.78 282.95 443.06 288.09C433.62 288.52 433.12 270.13 440.53 265.62Z" fill="white"/>
<path d="M412.99 265.82C419.78 265.59 425.71 268.49 420.68 275.85C417.88 277.36 416.11 277.1 412.96 277.06C412.9 273.32 412.91 269.57 412.99 265.82Z" fill="white"/>
<path d="M486.94 265.81C494.4 265.59 498.67 269.61 494.16 276.68C491.39 278.39 490.17 278.11 486.9 278.08C486.88 273.99 486.9 269.9 486.93 265.81H486.94Z" fill="white"/>
<path d="M252.17 268.22C253.04 269.97 255.46 278.33 255.5 280.31C254.79 280.79 253.18 280.65 252.22 280.65C250.92 280.65 249.94 280.82 248.83 280.2C249.02 277.76 251.32 270.84 252.17 268.22Z" fill="white"/>
<path d="M336.96 268.6C338.25 269.84 340.89 278.65 340.06 280.51L338.49 280.65L333.48 280.57C334.54 276.61 335.8 272.54 336.96 268.6Z" fill="white"/>
<path d="M554.19 208.88C555.72 208.84 557.17 208.8 558.7 208.83L559.01 209.27L559.11 208.84C559.64 208.86 559.4 208.77 559.85 209.07C556.5 209.83 553.5 209.74 550.09 209.54C551.11 209.26 553.07 209.04 554.19 208.88Z" fill="black"/>
<path d="M186.46 263.47H199.27V265.99H189.17V276.02H198.23V278.54H189.17V290.58H186.46V263.48V263.47Z" fill="black"/>
<path d="M207.29 263.47H210V290.57H207.29V263.47Z" fill="black"/>
<path d="M219.4 263.47H222.03L232.91 284.34V263.47H235.54V290.57H233.18L222.03 269.16V290.57H219.4V263.47Z" fill="black"/>
<path d="M251.19 263.31H254.02L262.07 290.56H259.24L257.19 283.51H247.9L245.85 290.56H243.18L251.19 263.31ZM256.49 281.04L252.58 267.34L248.59 281.04H256.49Z" fill="black"/>
<path d="M269.66 263.47H272.29L283.17 284.34V263.47H285.8V290.57H283.44L272.29 269.16V290.57H269.66V263.47Z" fill="black"/>
<path d="M294.12 277.25V276.82C294.12 268.07 298.46 263.19 303.91 263.19C306.35 263.19 308.13 264.12 309.56 265.44L308.05 267.57C306.89 266.53 305.5 265.75 303.83 265.75C299.96 265.75 296.86 270.01 296.86 276.86V277.13C296.86 284.17 299.96 288.28 303.79 288.28C305.45 288.28 306.93 287.47 308.2 286.27L309.67 288.36C308.08 289.83 306.07 290.84 303.63 290.84C298.17 290.84 294.11 286.08 294.11 277.25H294.12Z" fill="black"/>
<path d="M317.58 263.47H320.29V290.57H317.58V263.47Z" fill="black"/>
<path d="M336.17 263.31H339L347.05 290.56H344.22L342.17 283.51H332.88L330.83 290.56H328.16L336.17 263.31ZM341.47 281.04L337.56 267.34L333.57 281.04H341.47Z" fill="black"/>
<path d="M354.63 263.47H357.34V288.05H366.82V290.57H354.63V263.47Z" fill="black"/>
<path d="M384.87 277.28V276.78C384.87 268.42 389.21 263.19 395.13 263.19C397.57 263.19 399.43 263.81 401.29 265.32L399.74 267.6C398.62 266.52 397.11 265.74 395.17 265.74C390.95 265.74 387.62 269.88 387.62 276.81V277.16C387.62 284.4 390.83 288.35 395.29 288.35C396.72 288.35 398 287.92 398.93 287.31V278.68H393.74V276.2H401.52V288.74C399.89 289.9 397.65 290.83 395.09 290.83C388.97 290.83 384.87 285.87 384.87 277.28Z" fill="black"/>
<path d="M410.31 263.47H416.85C419.6 263.47 421.84 264.32 423.31 265.79C424.66 267.14 425.44 269.16 425.44 271.6V271.72C425.44 275.82 423.23 278.34 420.1 279.39L426.14 290.58H423.04L417.39 280.01C417.04 280.05 416.69 280.05 416.35 280.05H413.02V290.58H410.31V263.48V263.47ZM416.03 277.56C420.83 277.56 422.77 275.16 422.77 271.75V271.71C422.77 267.92 420.41 265.98 416.65 265.98H413.01V277.56H416.03Z" fill="black"/>
<path d="M432.87 277.32V276.74C432.87 268.3 436.74 263.07 442.08 263.07C447.42 263.07 451.25 268.22 451.25 276.7V277.28C451.25 285.72 447.34 290.95 442 290.95C436.66 290.95 432.86 285.8 432.86 277.32H432.87ZM448.48 277.25V276.79C448.48 269.78 445.69 265.64 442.05 265.64C438.41 265.64 435.66 269.78 435.66 276.79V277.25C435.66 284.26 438.41 288.4 442.05 288.4C445.69 288.4 448.48 284.26 448.48 277.25Z" fill="black"/>
<path d="M459.32 281.85V263.46H462.03V281.89C462.03 286.15 464.04 288.43 467.29 288.43C470.54 288.43 472.48 286.22 472.48 281.97V263.47H475.23V281.82C475.23 287.7 472.06 290.96 467.26 290.96C462.46 290.96 459.32 287.71 459.32 281.86V281.85Z" fill="black"/>
<path d="M484.17 263.47H490.09C495.43 263.47 498.88 266.68 498.88 272.1V272.18C498.88 277.75 495.2 280.93 489.94 281.01H486.88V290.57H484.17V263.47ZM489.94 278.52C493.85 278.52 496.13 276.08 496.13 272.21V272.17C496.13 268.14 493.81 265.98 489.97 265.98H486.87V278.52H489.94Z" fill="black"/>
<path d="M500.59 293.93C502.49 293.27 503.14 292.15 502.99 290.56H501.6V286.69H504.93V289.98C504.93 292.96 503.73 294.39 501.06 295.21L500.6 293.93H500.59Z" fill="black"/>
<path d="M525.33 263.47H528.04V290.57H525.33V263.47Z" fill="black"/>
<path d="M537.44 263.47H540.07L550.95 284.34V263.47H553.58V290.57H551.22L540.07 269.16V290.57H537.44V263.47Z" fill="black"/>
<path d="M561.91 277.25V276.82C561.91 268.07 566.25 263.19 571.7 263.19C574.14 263.19 575.92 264.12 577.35 265.44L575.84 267.57C574.68 266.53 573.29 265.75 571.62 265.75C567.75 265.75 564.65 270.01 564.65 276.86V277.13C564.65 284.17 567.75 288.28 571.58 288.28C573.24 288.28 574.72 287.47 575.99 286.27L577.46 288.36C575.87 289.83 573.86 290.84 571.42 290.84C565.96 290.84 561.9 286.08 561.9 277.25H561.91Z" fill="black"/>
<path d="M584.63 286.69H587.96V290.56H584.63V286.69Z" fill="black"/>
</g>
</svg>
